X:1
T:He Who Would Valiant Be
T:He Who Would Valiant Be
T:Words: John Bunyan, 1684. Modified by Percy Dearmer, 1906. Music: 'Monks Gate' traditional English. Setting: Ralph Vaughan Williams, 1904.
T:Music source: 'Lutheran Worship' Hymnal, 1982 Hymn 383.
T:Public Domain - Adapted from OpenHymnal.org
Z:Public Domain - Adapted from OpenHymnal.org
%%score ( 1 2 ) ( 3 4 )
L:1/8
Q:1/4=120
M:4/4
K:D
V:1 treble 
V:2 treble 
V:3 bass 
V:4 bass 
V:1
"D""^.00" (D3 E) | F2 D2"Bm" FG A2 |"G" B4"A" A4 |"D" A2 D2"A" C2"D" D2- | D4 (D3 E) | %5
w: 1.~He *|who would val- * iant|be 'gainst|all dis- a- ster,|* Let *|
w: 2.~Who *|so be- set * him|round with|dis- mal stor- ies|* Do *|
w: 3.~Since, *|Lord, Thou dost * de-|fend us|with Thy Spi- rit,|* We *|
 F2 D2"Bm" FG A2 |"G" B4"A" A4 |"D" A2 D2"A" C2"D" D2- | D4 A4 |"Bm" d2 B2"Em" c2"F#" dc | %10
w: him in con- * stan-|cy fol-|low the Mas- ter.|* There's|no dis- cour- age- *|
w: but them- selves * con-|found his|strength the more is.|* No|foes shall stay his *|
w: know we at * the|end, shall|life in- her- it.|* Then|fan- cies flee a- *|
"G" B6"A" A2 |"D" FE D2 F2"G" G2 |"A" A6"D" d2 |"A""D" A3 A"G" BA"Em" GF |"A" E2 B2"D" A2"Em" D2 | %15
w: ment shall|make * him once re-|lent His|first a- vowed * in- *|tent to be a|
w: might; though|he * with gi- ants|fight, He|will make good * his *|right to be a|
w: way! I'll|fear * not what men|say, I'll|la- bor night * and *|day to be a|
"A" C2"D" D4 |] %16
w: pil- grim.|
w: pil- grim.|
w: pil- grim.|
V:2
 A,4 | D2 A,2 D2 C2 | B,4 C4 | D2 A,2 A,2 A,2- | A,4 A,4 | D2 A,2 D2 C2 | B,4 C4 | %7
 D2 A,2 A,2 A,2- | A,4 (D3 E) | F2 F2 G2 FE | D6 E2 | D2 A,2 D2 D2 | C6 D2 | C2 D2 D2 D2 | %14
 E2 C2 D2 B,2 | A,2 A,4 |] %16
V:3
 (F,3 G,) | A,2 F,2 D,2 E,2 | G,4 A,4 | A,2 A,2 G,2 F,2- | F,4 (F,3 G,) | A,2 F,2 D,2 E,2 | %6
 G,4 A,4 | A,2 A,2 G,2 F,2- | F,4 F,4 | B,2 B,2 B,2 ^A,2 | (B,4 G,2) E,2 | A,2 A,2 F,2 D,2 | %12
 (E,4 A,2) A,2 | G,2 F,2 G,2 B,2 | C2 C2 A,2 G,2 | G,2 F,4 |] %16
V:4
 D,4 | D,2 D,2 B,,2 A,,2 | G,,4 G,4 | F,2 F,2 E,2 D,2- | D,4 D,4 | D,2 D,2 B,,2 A,,2 | G,,4 G,4 | %7
 F,2 F,2 E,2 D,2- | D,4 (D,3 C,) | B,,2 D,2 E,2 F,2 | (G,4 B,,2) C,2 | D,2 F,2 D,2 B,,2 | %12
 (A,,2 A,2 G,2) F,2 | E,2 D,2 G,2 E,2 | A,2 G,2 F,2 E,2 | A,,2 D,4 |] %16

